X: 1
T: Arthur's Seat
R: reel
O:
B: Athole Collection
D:
Z: 1997 by John Chambers <jc@trillian.mit.edu>
N:
M: C|
L: 1/8
K:Bm
|: dc \
| "Bm"BFF2 d2de | "A"cAeA "F#7"fedc | "Bm"BFF2 d2cd | "F#7"fedc "Bm"dBBc |
| "Bm"BFF2 d2de | "A"cAeA "F#7"fedc | "Bm"BFF2 d2cd | "F#7"fedc "Bm"B2 :|
|: dc \
| "Bm"Bb-ba "G"gfed | "A"caed cAAc | "Bm"Bb-ba "G"gfed | "A"caec "Bm"dBBc |
| "Bm"Bb-ba "G"gfed | "A"caed cAAc | "Bm"B2Bc "G"dcde | "F#7"fedc "Bm"B2 :|
%%sep 5 5 234
K:C
x8 x8 x8 x8 |
x8 x8 x8 x8 |
x8 x8 x8 x8 |
x8 x8 x8 x8 |
